src/assets/vectors/fa-github.svg

<svg width="17" height="16" viewBox="0 0 17 16" fill="none" xmlns="http://www.w3.org/2000/svg">
<path d="M8.79948 0C10.2872 0 11.6593 0.366596 12.9157 1.09979C14.1721 1.83298 15.1669 2.82777 15.9001 4.08416C16.6332 5.34056 16.9998 6.71262 16.9998 8.20036C16.9998 9.98707 16.4784 11.594 15.4356 13.0213C14.3927 14.4485 13.0456 15.4362 11.3941 15.9843C11.2019 16.0199 11.0596 15.995 10.967 15.9096C10.8745 15.8241 10.8282 15.7174 10.8282 15.5892C10.8282 15.5679 10.83 15.2956 10.8336 14.7724C10.8371 14.2492 10.8389 13.7705 10.8389 13.3363C10.8389 12.6458 10.6538 12.1404 10.2837 11.8201C10.6894 11.7773 11.0542 11.7133 11.3781 11.6279C11.702 11.5424 12.0366 11.4036 12.3818 11.2114C12.727 11.0192 13.0153 10.7825 13.2467 10.5014C13.478 10.2202 13.6667 9.84648 13.8126 9.38023C13.9585 8.91398 14.0315 8.37832 14.0315 7.77326C14.0315 6.92617 13.7503 6.19298 13.188 5.57368C13.4513 4.92591 13.4229 4.19984 13.1025 3.39546C12.9032 3.3314 12.6149 3.37055 12.2377 3.51292C11.8604 3.65528 11.5329 3.81189 11.2553 3.98273L10.8496 4.23899C10.1876 4.05391 9.5042 3.96137 8.79948 3.96137C8.09476 3.96137 7.4114 4.05391 6.74939 4.23899C6.6355 4.16069 6.48423 4.06459 6.2956 3.95069C6.10696 3.8368 5.80977 3.69977 5.40402 3.53961C4.99827 3.37945 4.69574 3.3314 4.49643 3.39546C4.1761 4.19984 4.14763 4.92591 4.41101 5.57368C3.84866 6.19298 3.56748 6.92617 3.56748 7.77326C3.56748 8.37832 3.64044 8.9122 3.78637 9.37489C3.9323 9.83759 4.11915 10.2113 4.34694 10.496C4.57473 10.7808 4.86124 11.0192 5.20649 11.2114C5.55173 11.4036 5.88629 11.5424 6.21018 11.6279C6.53406 11.7133 6.89888 11.7773 7.30463 11.8201C7.02701 12.0763 6.85261 12.4429 6.78142 12.9198C6.63194 12.991 6.47178 13.0444 6.30093 13.08C6.13009 13.1156 5.92722 13.1334 5.69231 13.1334C5.45741 13.1334 5.22428 13.0569 4.99293 12.9038C4.76159 12.7508 4.56405 12.5283 4.40033 12.2365C4.26508 12.0087 4.09246 11.8236 3.88247 11.6812C3.67248 11.5389 3.4963 11.4535 3.35393 11.425L3.14038 11.393C2.99089 11.393 2.88768 11.409 2.83073 11.441C2.77378 11.473 2.75599 11.514 2.77734 11.5638C2.7987 11.6136 2.83073 11.6634 2.87344 11.7133C2.91615 11.7631 2.96242 11.8058 3.01225 11.8414L3.08699 11.8948C3.2436 11.966 3.39842 12.1012 3.55146 12.3005C3.70451 12.4999 3.81662 12.6814 3.88781 12.8451L3.99458 13.0907C4.08712 13.3612 4.24373 13.5801 4.4644 13.7474C4.68506 13.9146 4.92353 14.0214 5.17979 14.0677C5.43605 14.1139 5.68342 14.1389 5.92188 14.1424C6.16035 14.146 6.35788 14.1335 6.51449 14.105L6.76007 14.0623C6.76007 14.3328 6.76185 14.6478 6.76541 15.0073C6.76897 15.3668 6.77075 15.5608 6.77075 15.5892C6.77075 15.7174 6.72448 15.8241 6.63194 15.9096C6.5394 15.995 6.39703 16.0199 6.20484 15.9843C4.55338 15.4362 3.20622 14.4485 2.16338 13.0213C1.12054 11.594 0.599121 9.98707 0.599121 8.20036C0.599121 6.71262 0.965717 5.34056 1.69891 4.08416C2.4321 2.82777 3.42689 1.83298 4.68329 1.09979C5.93968 0.366596 7.31174 0 8.79948 0ZM3.70629 11.7773C3.72764 11.7275 3.70273 11.6848 3.63155 11.6492C3.56036 11.6279 3.51409 11.635 3.49274 11.6706C3.47138 11.7204 3.4963 11.7631 3.56748 11.7987C3.63155 11.8414 3.67782 11.8343 3.70629 11.7773ZM4.03729 12.1404C4.08712 12.1048 4.08 12.0478 4.01594 11.9695C3.94475 11.9055 3.88781 11.8948 3.8451 11.9375C3.79527 11.9731 3.80239 12.03 3.86645 12.1083C3.93764 12.1795 3.99458 12.1902 4.03729 12.1404ZM4.35762 12.6209C4.42169 12.571 4.42169 12.5034 4.35762 12.418C4.30067 12.3255 4.24017 12.3041 4.1761 12.3539C4.11204 12.3895 4.11204 12.4536 4.1761 12.5461C4.24017 12.6387 4.30067 12.6636 4.35762 12.6209ZM4.80608 13.0693C4.86302 13.0124 4.84879 12.9448 4.76337 12.8665C4.67795 12.781 4.60676 12.7704 4.54982 12.8344C4.48575 12.8914 4.49999 12.959 4.59253 13.0373C4.67795 13.1227 4.74913 13.1334 4.80608 13.0693ZM5.4147 13.3363C5.43605 13.258 5.38978 13.201 5.27589 13.1654C5.16911 13.137 5.10149 13.1619 5.07302 13.2402C5.04454 13.3185 5.09081 13.3719 5.21182 13.4003C5.3186 13.443 5.38622 13.4217 5.4147 13.3363ZM6.08738 13.3897C6.08738 13.2971 6.02688 13.258 5.90587 13.2722C5.79197 13.2722 5.73502 13.3113 5.73502 13.3897C5.73502 13.4822 5.79553 13.5213 5.91654 13.5071C6.03044 13.5071 6.08738 13.468 6.08738 13.3897ZM6.70668 13.2829C6.69245 13.2046 6.62838 13.1725 6.51449 13.1868C6.40059 13.2081 6.35076 13.2615 6.365 13.3469C6.37924 13.4324 6.4433 13.4608 6.5572 13.4324C6.67109 13.4039 6.72092 13.3541 6.70668 13.2829Z" fill="#F0F1F3"/>
</svg>

<svg xmlns="http://www.w3.org/2000/svg" width="17" height="16" viewBox="0 0 17 16" fill="none"><path d="M8.8 0a8.02 8.02 0 0 1 4.116 1.1c1.256.733 2.25 1.728 2.984 2.984S17 6.713 17 8.2a7.97 7.97 0 0 1-1.564 4.821 8.03 8.03 0 0 1-4.042 2.963c-.192.036-.335.01-.427-.075s-.14-.192-.14-.32l.005-.817.005-1.436c0-.69-.185-1.196-.555-1.516.406-.043.77-.107 1.094-.192s.66-.224 1.004-.417.633-.43.865-.7.42-.655.566-1.12.22-1.002.22-1.607a3.16 3.16 0 0 0-.843-2.2c.263-.648.235-1.374-.086-2.178-.2-.064-.488-.025-.865.117a5.75 5.75 0 0 0-.982.47l-.406.256a7.58 7.58 0 0 0-2.05-.278 7.58 7.58 0 0 0-2.05.278l-.454-.288c-.19-.114-.486-.25-.892-.41s-.708-.208-.908-.144c-.32.804-.35 1.53-.085 2.178a3.16 3.16 0 0 0-.844 2.2c0 .605.073 1.14.22 1.602s.333.836.56 1.12.514.523.86.715.68.33 1.004.417.69.15 1.094.192c-.278.256-.452.623-.523 1.1-.15.07-.3.125-.48.16a3.02 3.02 0 0 1-.609.053c-.235 0-.468-.076-.7-.23s-.43-.376-.593-.667c-.135-.228-.308-.413-.518-.555s-.386-.228-.53-.256l-.214-.032c-.15 0-.253.016-.3.048s-.075.073-.053.123a.59.59 0 0 0 .096.149.78.78 0 0 0 .139.128l.075.053c.157.07.31.206.464.406s.265.38.336.545l.107.246c.093.27.25.49.47.657s.46.274.715.32a4.56 4.56 0 0 0 .742.075c.238.004.436-.01.593-.037l.246-.043.005.945.005.582c0 .128-.046.235-.14.32s-.235.1-.427.075a8.03 8.03 0 0 1-4.041-2.963A7.97 7.97 0 0 1 .599 8.2a8.02 8.02 0 0 1 1.1-4.116c.733-1.256 1.728-2.25 2.984-2.984A8.02 8.02 0 0 1 8.799 0zM3.706 11.777c.02-.05-.004-.093-.075-.128-.07-.02-.117-.014-.14.02-.02.05.004.092.075.128.064.043.1.036.14-.02zm.33.363c.05-.036.043-.093-.02-.17-.07-.064-.128-.075-.17-.032-.05.036-.043.092.02.17.07.07.128.082.17.032zm.32.48c.064-.05.064-.118 0-.203-.057-.092-.117-.114-.182-.064-.064.036-.064.1 0 .192s.125.118.182.075zm.448.448c.057-.057.043-.124-.043-.203-.085-.085-.157-.096-.214-.032-.064.057-.05.125.043.203.085.085.157.096.214.032zm.61.267c.02-.078-.025-.135-.14-.17-.107-.028-.174-.004-.203.075s.018.132.14.16c.107.043.174.02.203-.064zm.673.053c0-.093-.06-.132-.182-.117-.114 0-.17.04-.17.117 0 .093.06.132.182.117.114 0 .17-.04.17-.117zm.62-.107c-.014-.078-.078-.1-.192-.096-.114.02-.164.075-.15.16s.078.114.192.085.164-.078.15-.15z" fill="#f0f1f3"/></svg>
